journy/img/media/time.svg

<svg fill="none" height="24" viewBox="0 0 76 24" width="76" xmlns="http://www.w3.org/2000/svg"><g clip-rule="evenodd" fill="#122842" fill-rule="evenodd"><path d="m8.09167 1.60797-2.21438-.01141-3.43021-.00201c-.23739 0-2.07757.0161-2.07757.0161l-.034201 2.75422-.335309.01006.0207891-3.09691-.0107298-1.27216062c1.1688907.05297882 5.3937807.08986272 9.7769307.09254522 5.11141.0033534 8.40551-.0415783 9.69711-.0764504l-.0154 1.4082958.0248 3.13246-.348-.0047c.0026-.25483-.0557-1.29429-.0523-1.39622.0006-.03756-.0725-1.43244-.0825-1.53773l-1.468-.02012-4.3979-.00335-1.6853.00536-.0074 19.31915c0 .0275.0302 1.2675.0369 1.5243.1683.0222 1.7986.1281 2.0937.1288l.1147-.0007v.5251c-.0879 0-.1972.0087-.2884.0081-.9248-.0101-2.4203-.1134-3.48252-.1141-1.04482-.0006-2.51951.0939-3.60926.1087-.02884.0007-.25282-.0047-.33598-.0087l-.00201-.5613c.01073.0013.07712-.0007.18039-.0041.46072-.0167 1.59406-.0865 1.88913-.1093l.04695-.006-.00067-1.6538z"/><path d="m36.2529 0s1.6497 4.75535 1.9173 5.45078c.2689.6961 5.3106 12.72632 5.3106 12.72632s2.3733-5.1799 4.4878-10.73995c.4285-1.1253.9898-2.59261 1.4029-3.78161.6076-1.73959 1.2735-3.64682197 1.2735-3.64682197l1.299.00067062s.3212 2.12452135.4346 3.07076135c.3306 2.75221 2.496 13.94015 3.2558 17.62045.1898.9201.334 1.7175.334 1.7175.2226.0141 1.1011.0959 1.6222.1368.108.0087.4004.0228.4681.0235l.0007.5539s-.2354.0114-.3655.0114c-1.1649-.0074-2.9789-.1053-4.0988-.106-.9945 0-1.9529.0778-2.9487.0966-.169.0034-.3394-.004-.513-.004v-.5479c.006-.0014.1388-.0087.2085-.0061.4869-.0207 1.7758-.1374 1.9039-.1435.0007-.2005-.0691-.8973-.1737-1.6095-.0731-.5029-.1958-1.3613-.3259-2.2076-.2817-1.645-1.5921-8.4646-1.981-10.35771-.0631-.3105-.1026-.48419-.1026-.48419s-4.0713 9.6549-4.8922 11.5568c-.0798.1871-.1375.3192-.1562.3621-.7853 1.8321-1.4439 3.4651-1.4439 3.4651l-1.1554-.0061-6.328-15.08283-.1495-.35073s-.5546 2.82666-1.3547 6.81486c-.4225 2.1547-1.2996 7.5424-1.3593 7.8985.5049.0691 1.4961.1448 1.767.1361.0624 0 .1677.0027.2468.0027l-.0006.5459c-.1134.0141-.3783.0154-.3883.0154-.9563-.0188-1.6457-.0878-2.6778-.0878-.2709 0-1.7054.0684-2.211.0845-.2113.0087-.5084-.0134-.5654-.0114l.0007-.5399c.049 0 .1496-.0194.2126-.0214.458-.0182 1.1615-.0832 1.7584-.155.0482-.2655.5653-2.9218.7303-3.862.6344-3.1144 2.5067-13.51903 2.7421-14.92062.2059-1.51559.4453-3.400029.4661-3.6079207.4949.0080474 1.3486-.0100593 1.3486-.0100593z"/><path d="m27.8274 23.1318c-.8584 0-2.3163-.1334-3.4094-.1341-1.0797-.0007-2.547.1301-3.6019.1294-.0899.0014-.2481-.0174-.3347-.0174l.0007-.5486c.2072-.004 1.1394-.0825 1.4003-.0999.3038-.0201.5847-.0349.7095-.0718 0 0 .0027-.6612.0074-1.6866.0134-3.5449.0415-13.56455.0087-18.09793-.0034-.47815-.0061-1.689953-.0061-1.865655-.1978-.019448-.4741-.04359-.6719-.067732-.2481-.012742-1.2682-.103275-1.4412-.111993l-.006-.5492361c1.0113.0006706 2.5128.0965691 3.7306.0972391 1.1656.000671 2.7449-.0932154 3.9399-.0925448l-.0027.5720368c-.1898.01073-.6505.037555-.6666.038896-.348.030848-1.3231.133453-1.5625.148206-.0007.342013-.0013.979103-.0027 1.763723-.0027 4.05992-.0121 14.68049-.0154 18.25689-.0007.4674-.0007.8986-.0014 1.1582 0 .2736.0014.4379.0047.4486.0067.0195.6177.0731.7585.0818.2689.0282 1.3788.0751 1.4137.0818h.0737l-.0013.5493c-.0731-.0007-.2495.0181-.3239.0174z"/><path d="m64.2202 1.69157-.0107 9.09093 6.3052.0234c.0288 0 1.6685-.0462 1.708-.0462.0999.0013 1.2252-.0584 1.2682-.0725 0 0 .0187-.0959.0436-.1643.0918-.54987.2072-1.07228.2374-1.48069 0 0 .0288-.17436.0315-.29306l.3581-.00603c.0007.04157.0194.14686.0174.29507-.0053.54722-.0489 1.68661-.0476 2.43101.0013 1.075.0329 2.044.0389 2.5302.0054.1382-.0047.3595-.0047.3595h-.3936c-.0061-.0517-.0128-.1053-.0215-.161-.0698-.619-.1261-1.0569-.2294-1.6879-.0033-.0322-.0248-.1462-.0321-.2186-.2012-.0128-.7317-.0296-1.014-.0376-.1234-.004-1.6598-.0148-3.3887-.0174-.7095-.002-1.981.0288-2.5215.0275-.6317-.0014-1.6758.0342-2.3572.0583l.0013 8.2439.0269 1.0623 3.8272.063 5.4508-.002c.0248 0 1.248-.0443 1.6302-.0369.0798.002.2435-.0121.2435-.0121.0362-.2655.0811-.8054.126-1.3211.0054-.0597.1409-1.4277.1409-1.7946l.3366-.0033c0 .3474-.0744 4.6668-.0744 4.6668-.6143-.0006-2.4994-.004-4.8298-.0369-1.4103-.0194-2.9836-.0208-4.5367-.0422-1.2588-.0181-2.5034-.0604-3.6375-.059-1.6141.0006-3.1961.0979-3.8097.0986-.1409 0-.389-.0101-.4426-.0101v-.5432h.1126c.3789-.0013 1.4935-.0624 2.0742-.1616 0-.1087.0389-1.4533.0389-1.4807 0 0 .0067-17.06995.0074-17.8358.0007-.82553-.0147-2.199622-.0141-2.321003-.3292-.036884-.4459-.056332-.515-.069074-.3494-.046273-1.0368-.101934-1.405-.126747-.1046.002683-.2192-.010059-.2749-.019448 0 0-.0007-.5338114-.004-.5418588.0831.0053649.2555-.0060356.5646-.0046943.6492.0026824 1.8436.0925451 3.3062.0952281.9181.001341 2.4001-.0395669 3.461-.051638 1.5123.0006706 2.6604-.0114005 4.1263-.0201185 2.3921-.0127417 4.4348-.0274953 5.2335-.0301778.2334-.0006706.3608-.0020119.3608-.0020119 0 .0415783-.002.0912042-.002.1461942 0 .171008-.0074.472115-.0047.841629.0067 1.15011.0362 2.95742.0362 3.54756l-.3359.00135-.0034-.16229c-.0335-.40304-.1066-1.54108-.1978-2.4994-.0094-.08516-.0242-.1529-.0242-.1529-.2005-.0067-1.018-.03085-1.0327-.04292-.0134-.0114-.6646-.02079-.6787-.02682-.006-.00268-2.1466-.01677-4.3509-.01945-1.5063-.00268-2.9856.00604-3.895.00537-.2226-.00067-1.0234.02749-1.0234.02749z"/></g></svg>

<svg width="76" height="24" viewBox="0 0 76 24" fill="none" xmlns="http://www.w3.org/2000/svg">
<path fill-rule="evenodd" clip-rule="evenodd" d="M8.09167 1.60797L5.87729 1.59656L2.44708 1.59455C2.20969 1.59455 0.36951 1.61065 0.36951 1.61065L0.335309 4.36487L0 4.37493L0.0207891 1.27802L0.0100593 0.00585938C1.17895 0.0588382 5.40384 0.0957221 9.78699 0.0984046C14.8984 0.101758 18.1925 0.0568263 19.4841 0.0219542L19.4687 1.43025L19.4935 4.56271L19.1455 4.55801C19.1481 4.30318 19.0898 3.26372 19.0932 3.16179C19.0938 3.12423 19.0207 1.72935 19.0107 1.62406L17.5427 1.60394L13.1448 1.60059L11.4595 1.60595L11.4521 20.9251C11.4521 20.9526 11.4823 22.1926 11.489 22.4494C11.6573 22.4716 13.2876 22.5775 13.5827 22.5782L13.6974 22.5775V23.1026C13.6095 23.1026 13.5002 23.1113 13.409 23.1107C12.4842 23.1006 10.9887 22.9973 9.92648 22.9966C8.88166 22.996 7.40697 23.0905 6.31722 23.1053C6.28838 23.106 6.0644 23.1006 5.98124 23.0966L5.97923 22.5353C5.98996 22.5366 6.05635 22.5346 6.15962 22.5312C6.62034 22.5145 7.75368 22.4447 8.04875 22.4219L8.0957 22.4159L8.09503 20.7621L8.09167 1.60797Z" fill="#122842"/>
<path fill-rule="evenodd" clip-rule="evenodd" d="M36.2529 0C36.2529 0 37.9026 4.75535 38.1702 5.45078C38.4391 6.14688 43.4808 18.1771 43.4808 18.1771C43.4808 18.1771 45.8541 12.9972 47.9686 7.43715C48.3971 6.31185 48.9584 4.84454 49.3715 3.65554C49.9791 1.91595 50.645 0.00871803 50.645 0.00871803L51.944 0.00938865C51.944 0.00938865 52.2652 2.13391 52.3786 3.08015C52.7092 5.83236 54.8746 17.0203 55.6344 20.7006C55.8242 21.6207 55.9684 22.4181 55.9684 22.4181C56.191 22.4322 57.0695 22.514 57.5906 22.5549C57.6986 22.5636 57.991 22.5777 58.0587 22.5784L58.0594 23.1323C58.0594 23.1323 57.824 23.1437 57.6939 23.1437C56.529 23.1363 54.715 23.0384 53.5951 23.0377C52.6006 23.0377 51.6422 23.1155 50.6464 23.1343C50.4774 23.1377 50.307 23.1303 50.1334 23.1303V22.5824C50.1394 22.581 50.2722 22.5737 50.3419 22.5763C50.8288 22.5556 52.1177 22.4389 52.2458 22.4328C52.2465 22.2323 52.1767 21.5355 52.0721 20.8233C51.999 20.3204 51.8763 19.462 51.7462 18.6157C51.4645 16.9707 50.1541 10.1511 49.7652 8.25799C49.7021 7.94749 49.6626 7.7738 49.6626 7.7738C49.6626 7.7738 45.5913 17.4287 44.7704 19.3306C44.6906 19.5177 44.6329 19.6498 44.6142 19.6927C43.8289 21.5248 43.1703 23.1578 43.1703 23.1578L42.0149 23.1517L35.6869 8.06887L35.5374 7.71814C35.5374 7.71814 34.9828 10.5448 34.1827 14.533C33.7602 16.6877 32.8831 22.0754 32.8234 22.4315C33.3283 22.5006 34.3195 22.5763 34.5904 22.5676C34.6528 22.5676 34.7581 22.5703 34.8372 22.5703L34.8366 23.1162C34.7232 23.1303 34.4583 23.1316 34.4483 23.1316C33.492 23.1128 32.8026 23.0438 31.7705 23.0438C31.4996 23.0438 30.0651 23.1122 29.5595 23.1283C29.3482 23.137 29.0511 23.1149 28.9941 23.1169L28.9948 22.577C29.0438 22.577 29.1444 22.5576 29.2074 22.5556C29.6654 22.5374 30.3689 22.4724 30.9658 22.4006C31.014 22.1351 31.5311 19.4788 31.6961 18.5386C32.3305 15.4242 34.2028 5.01957 34.4382 3.61798C34.6441 2.10239 34.8835 0.217951 34.9043 0.0100593C35.3992 0.0181067 36.2529 0 36.2529 0Z" fill="#122842"/>
<path fill-rule="evenodd" clip-rule="evenodd" d="M27.8274 23.1318C26.969 23.1318 25.5111 22.9984 24.418 22.9977C23.3383 22.997 21.871 23.1278 20.8161 23.1271C20.7262 23.1285 20.568 23.1097 20.4814 23.1097L20.4821 22.5611C20.6893 22.5571 21.6215 22.4786 21.8824 22.4612C22.1862 22.4411 22.4671 22.4263 22.5919 22.3894C22.5919 22.3894 22.5946 21.7282 22.5993 20.7028C22.6127 17.1579 22.6408 7.13825 22.608 2.60487C22.6046 2.12672 22.6019 0.914917 22.6019 0.739215C22.4041 0.719767 22.1278 0.695625 21.93 0.671483C21.6819 0.658741 20.6618 0.568208 20.4888 0.55949L20.4828 0.0102539C21.4941 0.0109245 22.9956 0.106823 24.2134 0.107493C25.379 0.108164 26.9583 0.0142776 28.1533 0.0149482L28.1506 0.586985C27.9608 0.597715 27.5001 0.62454 27.484 0.625881C27.136 0.656729 26.1609 0.759334 25.9215 0.774087C25.9208 1.1161 25.9202 1.75319 25.9188 2.53781C25.9161 6.59773 25.9067 17.2183 25.9034 20.7947C25.9027 21.2621 25.9027 21.6933 25.902 21.9529C25.902 22.2265 25.9034 22.3908 25.9067 22.4015C25.9134 22.421 26.5244 22.4746 26.6652 22.4833C26.9341 22.5115 28.044 22.5584 28.0789 22.5651H28.1526L28.1513 23.1144C28.0782 23.1137 27.9018 23.1325 27.8274 23.1318Z" fill="#122842"/>
<path fill-rule="evenodd" clip-rule="evenodd" d="M64.2202 1.69157L64.2095 10.7825L70.5147 10.8059C70.5435 10.8059 72.1832 10.7597 72.2227 10.7597C72.3226 10.761 73.4479 10.7013 73.4909 10.6872C73.4909 10.6872 73.5096 10.5913 73.5345 10.5229C73.6263 9.97303 73.7417 9.45062 73.7719 9.04221C73.7719 9.04221 73.8007 8.86785 73.8034 8.74915L74.1615 8.74312C74.1622 8.78469 74.1809 8.88998 74.1789 9.03819C74.1736 9.58541 74.13 10.7248 74.1313 11.4692C74.1326 12.5442 74.1642 13.5132 74.1702 13.9994C74.1756 14.1376 74.1655 14.3589 74.1655 14.3589H73.7719C73.7658 14.3072 73.7591 14.2536 73.7504 14.1979C73.6806 13.5789 73.6243 13.141 73.521 12.51C73.5177 12.4778 73.4962 12.3638 73.4889 12.2914C73.2877 12.2786 72.7572 12.2618 72.4749 12.2538C72.3515 12.2498 70.8151 12.239 69.0862 12.2364C68.3767 12.2344 67.1052 12.2652 66.5647 12.2639C65.933 12.2625 64.8889 12.2981 64.2075 12.3222L64.2088 20.5661L64.2357 21.6284L68.0629 21.6914L73.5137 21.6894C73.5385 21.6894 74.7617 21.6451 75.1439 21.6525C75.2237 21.6545 75.3874 21.6404 75.3874 21.6404C75.4236 21.3749 75.4685 20.835 75.5134 20.3193C75.5188 20.2596 75.6543 18.8916 75.6543 18.5247L75.9909 18.5214C75.9909 18.8688 75.9165 23.1882 75.9165 23.1882C75.3022 23.1876 73.4171 23.1842 71.0867 23.1513C69.6764 23.1319 68.1031 23.1305 66.55 23.1091C65.2912 23.091 64.0466 23.0487 62.9125 23.0501C61.2984 23.0507 59.7164 23.148 59.1028 23.1487C58.9619 23.1487 58.7138 23.1386 58.6602 23.1386V22.5954H58.7728C59.1517 22.5941 60.2663 22.533 60.847 22.4338C60.847 22.3251 60.8859 20.9805 60.8859 20.9531C60.8859 20.9531 60.8926 3.88315 60.8933 3.1173C60.894 2.29177 60.8786 0.917678 60.8792 0.796297C60.55 0.759413 60.4333 0.739965 60.3642 0.727223C60.0148 0.68095 59.3274 0.625289 58.9592 0.600476C58.8546 0.603159 58.74 0.590417 58.6843 0.581028C58.6843 0.581028 58.6836 0.0472166 58.6803 0.0391692C58.7634 0.0445341 58.9358 0.0331336 59.2449 0.0344749C59.8941 0.0371573 61.0885 0.12702 62.5511 0.129703C63.4692 0.131044 64.9512 0.0901361 66.0121 0.078065C67.5244 0.0787356 68.6725 0.0666645 70.1384 0.0579465C72.5305 0.0452048 74.5732 0.0304512 75.3719 0.0277687C75.6053 0.0270981 75.7327 0.0257568 75.7327 0.0257568C75.7327 0.0673351 75.7307 0.116961 75.7307 0.171951C75.7307 0.342959 75.7233 0.644066 75.726 1.01358C75.7327 2.16369 75.7622 3.971 75.7622 4.56114L75.4263 4.56249L75.4229 4.4002C75.3894 3.99716 75.3163 2.85912 75.2251 1.9008C75.2157 1.81564 75.2009 1.7479 75.2009 1.7479C75.0004 1.7412 74.1829 1.71705 74.1682 1.70498C74.1548 1.69358 73.5036 1.68419 73.4895 1.67816C73.4835 1.67548 71.3429 1.66139 69.1386 1.65871C67.6323 1.65603 66.153 1.66475 65.2436 1.66408C65.021 1.66341 64.2202 1.69157 64.2202 1.69157Z" fill="#122842"/>
</svg>
